X:62
T:Duke of Gloster’s March. WCl.62
M:4/4
L:1/8
Q:1/2=80
S:William Clarke MS,Lincoln,1770.
R:.march
O:Lincoln
A:England
Z:vmp.Barry Callaghan
K:D
[V:1]f>g|a>fd>d d3f|e>dc>B A>GF>E|F>Ad>=c B>ge>d|c2A>A A2f>g|!
[V:2]d>e|f>af>f f3a|g2e2c2A2|D>FB>E G>ec>B|A2F>FF2d>e|!
%
[V:1]a>fd>d d3f|e>dc>B A>GF>E|F>Ad>=c B>ge>c|d2d>d d2:|!
[V:2]f>af>f f3a|g2e2c2A2|D>FB>E G>ec>A|F2F>FF2:|!
%
[V:1]|:f>g|a>ga>b =c’>ab>c’|b>ag>f g2b>a|b>ag>f e>dc>B|c>dc>B A>GF>E|!
[V:2]|:z2|z2f>g a>fg>a|g>fe>de2g2|g2e2c>BA>G|A>BA>G F2D2|!
%
[V:1]F>Ad>A G>Be>B|c>ea>c d>fa>f|b>gb>g f>ed>c|d2 d>d d2:|
[V:2]A>cB>c B>GE>G|A>cf>ef2d2|g>eg>e d>cB>A|F2F>FF2:|

